X: 432	% 124
T: Glow Worm Minuet
C: Arr. by Viola H. Ruth for the minuet.
S: Viola Ruth "Pioneer Western Folk Tunes" 1948 p.43 #2
R: march
Z: 2019 John Chambers <jc:trillian.mit.edu>
M: 4/4
L: 1/4
Q: "Minuet Statly"
K: A
V: 1 name="124"
|: "_8va alternating"\
AG/G/ ^FG |  ^GA GA | BA/A/ ^GA | Bc Bc |\
dc Bc | BA ^GA | cB _B=B | A=G ^FG |
AG/G/ ^FG | ^GA GA | BA/A/ ^GA | Bc Bc |\
dc Bc | BA d>A | GG d>c |[1 cB AG :|2 "^Last"c4 |]
